src/15-back.svg

<svg viewBox="0 0 16 16" fill="none" xmlns="http://www.w3.org/2000/svg"><path fill-rule="evenodd" clip-rule="evenodd" d="M3.75267 3.5L5.13 2.13L4.5 1.5L2.63 3.38L2 4L2.63 4.63L4.5 6.5L5.13 5.88L3.75 4.5H12.5C12.8978 4.5 13.2794 4.65804 13.5607 4.93934C13.842 5.22064 14 5.60218 14 6V7H15V6C15 5.33696 14.7366 4.70107 14.2678 4.23223C13.7989 3.76339 13.163 3.5 12.5 3.5H3.75267ZM5.83999 7.16H5.09999C4.73993 7.83549 4.1909 8.39148 3.51999 8.76V9.85L3.66999 9.77C4.14619 9.52318 4.56789 9.1831 4.90999 8.77V13.16H3.39999V14H7.26999V13.16H5.83999V7.16ZM8.79999 9.99999C9.21514 9.61783 9.75582 9.40085 10.32 9.38999C10.626 9.37801 10.9311 9.43064 11.2154 9.54444C11.4997 9.65825 11.7569 9.83069 11.9701 10.0505C12.1833 10.2703 12.3478 10.5326 12.4529 10.8203C12.558 11.1079 12.6013 11.4145 12.58 11.72C12.5872 12.0423 12.528 12.3626 12.4062 12.661C12.2843 12.9594 12.1024 13.2296 11.8716 13.4547C11.6409 13.6798 11.3663 13.855 11.065 13.9695C10.7636 14.0839 10.442 14.1352 10.12 14.12C9.58276 14.1652 9.04563 14.0319 8.59183 13.7408C8.13804 13.4498 7.79293 13.0171 7.60999 12.51V12.42L8.43998 12.12V12.21C8.55296 12.5476 8.77598 12.8376 9.07334 13.0334C9.3707 13.2292 9.72517 13.3196 10.08 13.29C10.2854 13.3007 10.4908 13.2673 10.6822 13.192C10.8737 13.1167 11.0468 13.0013 11.1898 12.8535C11.3329 12.7057 11.4427 12.5289 11.5117 12.3351C11.5807 12.1413 11.6074 11.935 11.59 11.73C11.6071 11.5368 11.583 11.3422 11.5193 11.1591C11.4555 10.976 11.3537 10.8084 11.2204 10.6676C11.0871 10.5267 10.9255 10.4158 10.7461 10.3421C10.5667 10.2684 10.3738 10.2336 10.18 10.24C9.87619 10.2362 9.57724 10.3163 9.31609 10.4716C9.05495 10.6269 8.84174 10.8513 8.69999 11.12V11.18L7.89999 11L8.17999 7.29999H12.18L12.09 8.19999H8.91999L8.79999 9.99999Z" fill="#111111"/></svg>

<svg viewBox="0 0 16 16" fill="none" xmlns="http://www.w3.org/2000/svg"><path fill-rule="evenodd" clip-rule="evenodd" d="M3.753 3.5 5.13 2.13 4.5 1.5 2.63 3.38 2 4l.63.63L4.5 6.5l.63-.62L3.75 4.5h8.75A1.5 1.5 0 0 1 14 6v1h1V6a2.5 2.5 0 0 0-2.5-2.5H3.753ZM5.84 7.16H5.1a3.94 3.94 0 0 1-1.58 1.6v1.09l.15-.08a4 4 0 0 0 1.24-1v4.39H3.4V14h3.87v-.84H5.84v-6ZM8.8 10a2.31 2.31 0 0 1 1.52-.61 2.18 2.18 0 0 1 2.26 2.33 2.351 2.351 0 0 1-2.46 2.4 2.45 2.45 0 0 1-2.51-1.61v-.09l.83-.3v.09a1.59 1.59 0 0 0 1.64 1.08 1.44 1.44 0 0 0 1.51-1.56 1.37 1.37 0 0 0-1.41-1.49 1.65 1.65 0 0 0-1.48.88v.06L7.9 11l.28-3.7h4l-.09.9H8.92L8.8 10Z" fill="#111111"/></svg>
